img/icone-vitamina.svg

<svg width="48" height="48" viewBox="0 0 48 48" fill="none" xmlns="http://www.w3.org/2000/svg">
<path d="M24 42C20.1 42 16.7917 40.6416 14.075 37.925C11.3583 35.2083 10 31.9 10 28C10 24.8666 10.925 22.0583 12.775 19.575C14.625 17.0916 17.05 15.4166 20.05 14.55C19.3833 14.3833 18.7333 14.1416 18.1 13.825C17.4667 13.5083 16.9 13.1 16.4 12.6C15.3 11.5 14.5917 10.1916 14.275 8.67495C13.9583 7.15829 13.8833 5.61662 14.05 4.04995C15.6167 3.88329 17.1583 3.95829 18.675 4.27495C20.1917 4.59162 21.5 5.29995 22.6 6.39995C23.3667 7.16662 23.925 8.03329 24.275 8.99995C24.625 9.96662 24.85 10.9833 24.95 12.05C25.3833 11.0166 25.9083 10.0416 26.525 9.12495C27.1417 8.20829 27.8333 7.36662 28.6 6.59995C28.9667 6.23329 29.4333 6.04995 30 6.04995C30.5667 6.04995 31.0333 6.23329 31.4 6.59995C31.7667 6.96662 31.95 7.43329 31.95 7.99995C31.95 8.56662 31.7667 9.03329 31.4 9.39995C30.6667 10.1333 30.0167 10.9416 29.45 11.825C28.8833 12.7083 28.4667 13.65 28.2 14.65C31.1333 15.5833 33.5 17.275 35.3 19.725C37.1 22.175 38 24.9333 38 28C38 31.9 36.6417 35.2083 33.925 37.925C31.2083 40.6416 27.9 42 24 42ZM24 38C26.7667 38 29.125 37.025 31.075 35.075C33.025 33.125 34 30.7666 34 28C34 25.2333 33.025 22.875 31.075 20.925C29.125 18.975 26.7667 18 24 18C21.2333 18 18.875 18.975 16.925 20.925C14.975 22.875 14 25.2333 14 28C14 30.7666 14.975 33.125 16.925 35.075C18.875 37.025 21.2333 38 24 38Z" fill="#FF9700"/>
</svg>

<svg xmlns="http://www.w3.org/2000/svg" width="48" height="48" fill="none" viewBox="0 0 48 48"><path fill="#ff9700" d="M24 42q-5.85 0-9.925-4.075T10 28q0-4.7 2.775-8.425t7.275-5.025a9.5 9.5 0 0 1-1.95-.725 6.5 6.5 0 0 1-1.7-1.225 7.65 7.65 0 0 1-2.125-3.925 14.8 14.8 0 0 1-.225-4.625 14.8 14.8 0 0 1 4.625.225A7.65 7.65 0 0 1 22.6 6.4 7 7 0 0 1 24.275 9q.525 1.45.675 3.05A17 17 0 0 1 28.6 6.6q.55-.55 1.4-.55t1.4.55.55 1.4-.55 1.4a14.5 14.5 0 0 0-1.95 2.425 10 10 0 0 0-1.25 2.825q4.4 1.4 7.1 5.075T38 28q0 5.85-4.075 9.925T24 42m0-4q4.15 0 7.075-2.925T34 28t-2.925-7.075T24 18t-7.075 2.925T14 28t2.925 7.075T24 38"/></svg>
